material/.icons/material/drama-masks.svg

<svg xmlns="http://www.w3.org/2000/svg" viewBox="0 0 24 24"><path d="M8.11 19.45a6.948 6.948 0 01-4.4-5.1L2.05 6.54c-.24-1.08.45-2.14 1.53-2.37l9.77-2.07.03-.01c1.07-.21 2.12.48 2.34 1.54l.35 1.67 4.35.93h.03c1.05.24 1.73 1.3 1.51 2.36l-1.66 7.82a6.993 6.993 0 01-8.3 5.38 6.888 6.888 0 01-3.89-2.34M20 8.18L10.23 6.1l-1.66 7.82v.03c-.57 2.68 1.16 5.32 3.85 5.89 2.69.57 5.35-1.15 5.92-3.84L20 8.18m-4 8.32a2.962 2.962 0 01-3.17 1.39 2.974 2.974 0 01-2.33-2.55L16 16.5M8.47 5.17L4 6.13l1.66 7.81.01.03c.15.71.45 1.35.86 1.9-.1-.77-.08-1.57.09-2.37l.43-2c-.45-.08-.84-.33-1.05-.69.06-.61.56-1.15 1.25-1.31h.25l.78-3.81c.04-.19.1-.36.19-.52m6.56 7.06c.32-.53 1-.81 1.69-.66.69.14 1.19.67 1.28 1.29-.33.52-1 .8-1.7.64-.69-.13-1.19-.66-1.27-1.27m-4.88-1.04c.32-.53.99-.81 1.68-.66.67.14 1.2.68 1.28 1.29-.33.52-1 .81-1.69.68-.69-.17-1.19-.7-1.27-1.31m1.82-6.76l1.96.42-.16-.8-1.8.38z"/></svg>

<?xml version="1.0" encoding="UTF-8"?><!DOCTYPE svg PUBLIC "-//W3C//DTD SVG 1.1//EN" "http://www.w3.org/Graphics/SVG/1.1/DTD/svg11.dtd"><svg xmlns="http://www.w3.org/2000/svg" xmlns:xlink="http://www.w3.org/1999/xlink" version="1.1" id="mdi-drama-masks" width="24" height="24" viewBox="0 0 24 24"><path d="M8.11,19.45C5.94,18.65 4.22,16.78 3.71,14.35L2.05,6.54C1.81,5.46 2.5,4.4 3.58,4.17L13.35,2.1L13.38,2.09C14.45,1.88 15.5,2.57 15.72,3.63L16.07,5.3L20.42,6.23H20.45C21.5,6.47 22.18,7.53 21.96,8.59L20.3,16.41C19.5,20.18 15.78,22.6 12,21.79C10.42,21.46 9.08,20.61 8.11,19.45V19.45M20,8.18L10.23,6.1L8.57,13.92V13.95C8,16.63 9.73,19.27 12.42,19.84C15.11,20.41 17.77,18.69 18.34,16L20,8.18M16,16.5C15.37,17.57 14.11,18.16 12.83,17.89C11.56,17.62 10.65,16.57 10.5,15.34L16,16.5M8.47,5.17L4,6.13L5.66,13.94L5.67,13.97C5.82,14.68 6.12,15.32 6.53,15.87C6.43,15.1 6.45,14.3 6.62,13.5L7.05,11.5C6.6,11.42 6.21,11.17 6,10.81C6.06,10.2 6.56,9.66 7.25,9.5C7.33,9.5 7.4,9.5 7.5,9.5L8.28,5.69C8.32,5.5 8.38,5.33 8.47,5.17M15.03,12.23C15.35,11.7 16.03,11.42 16.72,11.57C17.41,11.71 17.91,12.24 18,12.86C17.67,13.38 17,13.66 16.3,13.5C15.61,13.37 15.11,12.84 15.03,12.23M10.15,11.19C10.47,10.66 11.14,10.38 11.83,10.53C12.5,10.67 13.03,11.21 13.11,11.82C12.78,12.34 12.11,12.63 11.42,12.5C10.73,12.33 10.23,11.8 10.15,11.19M11.97,4.43L13.93,4.85L13.77,4.05L11.97,4.43Z" /></svg>
